dist/img/svg/phone.svg

<svg width="17" height="17" viewBox="0 0 17 17" fill="none" xmlns="http://www.w3.org/2000/svg">
<path d="M15.732 15.252L16.1023 15.588L16.1025 15.5878L15.732 15.252ZM14.42 16.196L14.2304 15.7333L14.2277 15.7345L14.42 16.196ZM7.5 14.332L7.20508 14.7358L7.2057 14.7362L7.5 14.332ZM4.876 12.092L4.52073 12.4439L4.52416 12.4473L4.876 12.092ZM2.644 9.476L2.23809 9.76797L2.23979 9.7703L2.644 9.476ZM1.076 6.748L0.61518 6.94203L0.615798 6.94348L1.076 6.748ZM0.788 2.588L1.25225 2.7737L1.25328 2.77106L0.788 2.588ZM1.708 1.252L2.05119 1.61578L2.05876 1.60833L1.708 1.252ZM4.02 0.644L3.80361 1.09481L3.81047 1.09798L4.02 0.644ZM4.556 1.092L4.14488 1.37662L4.14821 1.38132L4.556 1.092ZM6.412 3.708L6.0042 3.99733L6.00623 4.00015L6.412 3.708ZM6.732 4.268L6.26916 4.45734L6.27243 4.46496L6.732 4.268ZM6.676 5.324L6.2489 5.06403L6.2447 5.07093L6.24072 5.07797L6.676 5.324ZM6.228 5.892L5.87438 5.53838L5.86767 5.54535L6.228 5.892ZM5.62 6.524L5.97362 6.87762L5.98033 6.87065L5.62 6.524ZM5.516 7.028L5.03093 7.14927L5.03784 7.1769L5.04784 7.20356L5.516 7.028ZM5.58 7.188L5.10566 7.34611L5.11974 7.38835L5.14105 7.42743L5.58 7.188ZM6.324 8.212L5.94228 8.53499L5.94592 8.53919L6.324 8.212ZM7.484 9.476L7.12703 9.82623L7.13377 9.83284L7.484 9.476ZM8.756 10.652L8.43238 11.0331L8.43303 11.0337L8.756 10.652ZM9.788 11.388L9.55406 11.8299L9.57759 11.8424L9.6023 11.8522L9.788 11.388ZM9.932 11.452L9.73504 11.9116L9.74564 11.9161L9.75644 11.9202L9.932 11.452ZM10.46 11.348L10.1088 10.9921L10.1064 10.9944L10.46 11.348ZM11.068 10.748L11.4192 11.1039L11.4216 11.1016L11.068 10.748ZM11.644 10.3L11.8753 10.7433L11.8899 10.7357L11.904 10.7271L11.644 10.3ZM13.26 10.548L13.5495 10.1402L13.5412 10.1345L13.26 10.548ZM15.908 12.428L15.6185 12.8357L15.6234 12.8391L15.908 12.428ZM16.348 12.94L16.8122 12.7543L16.8091 12.7464L16.8057 12.7386L16.348 12.94ZM13.2 6.1C13.2 6.37614 13.4239 6.6 13.7 6.6C13.9761 6.6 14.2 6.37614 14.2 6.1H13.7H13.2ZM12.764 4.284L12.3974 4.62402L12.3985 4.62516L12.764 4.284ZM10.9 2.8C10.6239 2.8 10.4 3.02386 10.4 3.3C10.4 3.57614 10.6239 3.8 10.9 3.8V3.3V2.8ZM16 6.1C16 6.37614 16.2239 6.6 16.5 6.6C16.7761 6.6 17 6.37614 17 6.1H16.5H16ZM10.9 0C10.6239 0 10.4 0.223858 10.4 0.5C10.4 0.776142 10.6239 1 10.9 1V0.5V0ZM16.476 13.564H15.976C15.976 13.777 15.9288 14.0002 15.8239 14.2225L16.276 14.436L16.7281 14.6495C16.8952 14.2958 16.976 13.927 16.976 13.564H16.476ZM16.276 14.436L15.8239 14.2225C15.7077 14.4685 15.5586 14.6988 15.3615 14.9162L15.732 15.252L16.1025 15.5878C16.3694 15.2932 16.5723 14.9795 16.7281 14.6495L16.276 14.436ZM15.732 15.252L15.3617 14.916C15.0138 15.2995 14.6417 15.5648 14.2304 15.7333L14.42 16.196L14.6096 16.6587C15.1743 16.4272 15.6662 16.0685 16.1023 15.588L15.732 15.252ZM14.42 16.196L14.2277 15.7345C13.8109 15.9081 13.3565 16 12.86 16V16.5V17C13.4835 17 14.0691 16.8839 14.6123 16.6575L14.42 16.196ZM12.86 16.5V16C12.1231 16 11.3178 15.8266 10.448 15.456L10.252 15.916L10.056 16.376C11.0262 16.7894 11.9649 17 12.86 17V16.5ZM10.252 15.916L10.448 15.456C9.56631 15.0803 8.67903 14.5719 7.7943 13.9278L7.5 14.332L7.2057 14.7362C8.14497 15.4201 9.09769 15.9677 10.056 16.376L10.252 15.916ZM7.5 14.332L7.79492 13.9282C6.89553 13.2713 6.0425 12.5436 5.22784 11.7367L4.876 12.092L4.52416 12.4473C5.3735 13.2884 6.26447 14.0487 7.20508 14.7358L7.5 14.332ZM4.876 12.092L5.23126 11.7402C4.42433 10.9254 3.69682 10.0726 3.04821 9.1817L2.644 9.476L2.23979 9.7703C2.91918 10.7034 3.67967 11.5946 4.52074 12.4438L4.876 12.092ZM2.644 9.476L3.0499 9.18404C2.4115 8.2965 1.90326 7.41664 1.5362 6.55252L1.076 6.748L0.615798 6.94348C1.01674 7.88736 1.5645 8.8315 2.2381 9.76797L2.644 9.476ZM1.076 6.748L1.53682 6.55397C1.17387 5.69197 1 4.886 1 4.132H0.5H0C0 5.042 0.21013 5.98003 0.615182 6.94203L1.076 6.748ZM0.5 4.132H1C1 3.64726 1.08543 3.19072 1.25224 2.7737L0.788 2.588L0.323762 2.4023C0.106573 2.94528 0 3.52874 0 4.132H0.5ZM0.788 2.588L1.25328 2.77106C1.4167 2.3557 1.67727 1.96837 2.05111 1.6157L1.708 1.252L1.36489 0.888303C0.890728 1.33563 0.543295 1.8443 0.322717 2.40494L0.788 2.588ZM1.708 1.252L2.05876 1.60833C2.49529 1.17862 2.93458 1 3.372 1V0.5V0C2.62542 0 1.94471 0.317383 1.35724 0.895674L1.708 1.252ZM3.372 0.5V1C3.52598 1 3.67543 1.03322 3.80363 1.09476L4.02 0.644L4.23637 0.193239C3.96457 0.0627781 3.66602 0 3.372 0V0.5ZM4.02 0.644L3.81047 1.09798C3.94419 1.1597 4.05588 1.24801 4.1449 1.37661L4.556 1.092L4.9671 0.807395C4.76813 0.519991 4.51181 0.320303 4.22953 0.19002L4.02 0.644ZM4.556 1.092L4.14821 1.38132L6.00421 3.99732L6.412 3.708L6.81979 3.41868L4.96379 0.80268L4.556 1.092ZM6.412 3.708L6.00623 4.00015C6.13212 4.17499 6.21497 4.32469 6.26923 4.45732L6.732 4.268L7.19477 4.07868C7.10503 3.85931 6.97988 3.64101 6.81777 3.41585L6.412 3.708ZM6.732 4.268L6.27243 4.46496C6.32494 4.58748 6.344 4.68784 6.344 4.756H6.844H7.344C7.344 4.52016 7.28306 4.28452 7.19157 4.07104L6.732 4.268ZM6.844 4.756H6.344C6.344 4.84735 6.31809 4.95035 6.2489 5.06403L6.676 5.324L7.1031 5.58397C7.25791 5.32965 7.344 5.04865 7.344 4.756H6.844ZM6.676 5.324L6.24072 5.07797C6.16464 5.21257 6.04379 5.3691 5.87445 5.53845L6.228 5.892L6.58155 6.24555C6.79621 6.0309 6.97936 5.80343 7.11128 5.57003L6.676 5.324ZM6.228 5.892L5.86767 5.54535L5.25967 6.17735L5.62 6.524L5.98033 6.87065L6.58833 6.23865L6.228 5.892ZM5.62 6.524L5.26645 6.17045C5.07694 6.35995 4.992 6.59475 4.992 6.844H5.492H5.992C5.992 6.83289 5.99354 6.83879 5.98784 6.85318C5.9852 6.85986 5.98191 6.86597 5.97857 6.87097C5.9753 6.87586 5.97311 6.878 5.97355 6.87755L5.62 6.524ZM5.492 6.844H4.992C4.992 6.95537 5.00672 7.05244 5.03093 7.14927L5.516 7.028L6.00107 6.90673C5.99328 6.87556 5.992 6.86063 5.992 6.844H5.492ZM5.516 7.028L5.04784 7.20356C5.06421 7.24723 5.08066 7.28552 5.09052 7.30882C5.10208 7.33614 5.10469 7.34322 5.10566 7.34611L5.58 7.188L6.05434 7.02989C6.03931 6.98478 6.02192 6.94386 6.01148 6.91918C5.99934 6.89048 5.99179 6.87277 5.98417 6.85244L5.516 7.028ZM5.58 7.188L5.14105 7.42743C5.30868 7.73474 5.58146 8.10852 5.94231 8.53497L6.324 8.212L6.70569 7.88903C6.36254 7.48348 6.13932 7.16926 6.01895 6.94857L5.58 7.188ZM6.324 8.212L5.94592 8.53919C6.311 8.96107 6.70215 9.39306 7.1271 9.82617L7.484 9.476L7.8409 9.12583C7.43385 8.71094 7.057 8.29493 6.70208 7.88481L6.324 8.212ZM7.484 9.476L7.13377 9.83284C7.56978 10.2608 7.99539 10.6621 8.43238 11.0331L8.756 10.652L9.07962 10.2709C8.66861 9.92189 8.26222 9.53921 7.83423 9.11916L7.484 9.476ZM8.756 10.652L8.43303 11.0337C8.86382 11.3982 9.23842 11.6628 9.55406 11.8299L9.788 11.388L10.0219 10.9461C9.79358 10.8252 9.48018 10.6098 9.07897 10.2703L8.756 10.652ZM9.788 11.388L9.6023 11.8522C9.60905 11.8549 9.62006 11.8598 9.64567 11.8715C9.66788 11.8817 9.70011 11.8966 9.73504 11.9116L9.932 11.452L10.129 10.9924C10.1079 10.9834 10.0881 10.9743 10.0623 10.9625C10.0399 10.9522 10.007 10.9371 9.9737 10.9238L9.788 11.388ZM9.932 11.452L9.75644 11.9202C9.89351 11.9716 10.0213 11.984 10.132 11.984V11.484V10.984C10.1143 10.984 10.1062 10.983 10.1039 10.9826C10.1025 10.9824 10.1045 10.9827 10.1076 10.9838L9.932 11.452ZM10.132 11.484V11.984C10.4077 11.984 10.6369 11.8782 10.8136 11.7016L10.46 11.348L10.1064 10.9944C10.1032 10.9977 10.1027 10.9976 10.1052 10.996C10.1077 10.9942 10.1122 10.9915 10.1181 10.989C10.124 10.9865 10.1293 10.985 10.1329 10.9843C10.1364 10.9836 10.1364 10.984 10.132 10.984V11.484ZM10.46 11.348L10.8112 11.7039L11.4192 11.1039L11.068 10.748L10.7168 10.3921L10.1088 10.9921L10.46 11.348ZM11.068 10.748L11.4216 11.1016C11.6013 10.9218 11.7526 10.8073 11.8753 10.7433L11.644 10.3L11.4127 9.85671C11.1674 9.98469 10.9347 10.1742 10.7144 10.3944L11.068 10.748ZM11.644 10.3L11.904 10.7271C12.0194 10.6568 12.1145 10.632 12.212 10.632V10.132V9.632C11.9095 9.632 11.6366 9.71919 11.384 9.8729L11.644 10.3ZM12.212 10.132V10.632C12.2907 10.632 12.3865 10.648 12.5107 10.6988L12.7 10.236L12.8893 9.77323C12.6615 9.68002 12.4373 9.632 12.212 9.632V10.132ZM12.7 10.236L12.5107 10.6988C12.6447 10.7536 12.7974 10.8381 12.9788 10.9615L13.26 10.548L13.5412 10.1345C13.3226 9.98591 13.1073 9.8624 12.8893 9.77323L12.7 10.236ZM13.26 10.548L12.9705 10.9557L15.6185 12.8357L15.908 12.428L16.1975 12.0203L13.5495 10.1403L13.26 10.548ZM15.908 12.428L15.6234 12.8391C15.7671 12.9386 15.8449 13.038 15.8903 13.1414L16.348 12.94L16.8057 12.7386C16.6751 12.442 16.4649 12.2054 16.1926 12.0169L15.908 12.428ZM16.348 12.94L15.8838 13.1257C15.9455 13.28 15.976 13.4166 15.976 13.564H16.476H16.976C16.976 13.2634 16.9105 13 16.8122 12.7543L16.348 12.94ZM13.7 6.1H14.2C14.2 5.74679 14.0676 5.36038 13.8867 5.00839C13.7005 4.64628 13.4393 4.27474 13.1295 3.94284L12.764 4.284L12.3985 4.62516C12.6487 4.89326 12.8555 5.18972 12.9973 5.46561C13.1444 5.75162 13.2 5.97321 13.2 6.1H13.7ZM12.764 4.284L13.1306 3.94398C12.5769 3.34698 11.7734 2.8 10.9 2.8V3.3V3.8C11.3706 3.8 11.9271 4.11702 12.3974 4.62402L12.764 4.284ZM16.5 6.1H17C17 2.72786 14.2721 0 10.9 0V0.5V1C13.7199 1 16 3.28014 16 6.1H16.5Z" fill="currentColor"/>
</svg>

<svg width="17" height="17" viewBox="0 0 17 17" fill="none" xmlns="http://www.w3.org/2000/svg"><path d="M15.732 15.252l.37.336-.37-.336zm-1.312.944l-.19-.463-.002.002.192.461zM7.5 14.332l-.295.404.295-.404zm-2.624-2.24l-.355.352.003.003.352-.355zM2.644 9.476l-.406.292.002.002.404-.294zM1.076 6.748l-.46.194v.001l.46-.195zm-.288-4.16l.464.186.001-.003-.465-.183zm.92-1.336l.343.364.008-.008-.351-.356zM4.02.644l-.216.45.006.004.21-.454zm.536.448l-.411.285.003.004.408-.289zm1.856 2.616l-.408.29.002.002.406-.292zm.32.56l-.463.19.003.007.46-.197zm-.056 1.056l-.427-.26-.004.007-.004.007.435.246zm-.448.568l-.354-.354-.006.007.36.347zm-.608.632l.354.354.006-.007-.36-.347zm-.104.504l-.485.121.007.028.01.027.468-.176zm.064.16l-.474.158.014.042.021.04.439-.24zm.744 1.024l-.382.323.004.004.378-.327zm1.16 1.264l-.357.35.007.007.35-.357zm1.272 1.176l-.324.381h.001l.323-.381zm1.032.736l-.234.442.024.012.024.01.186-.464zm.144.064l-.197.46.01.004.011.004.176-.468zm.528-.104l-.351-.356-.003.002.354.354zm.608-.6l.351.356.003-.002-.354-.354zm.576-.448l.231.443.015-.007.014-.009-.26-.427zm1.616.248l.29-.408-.009-.006-.281.414zm2.648 1.88l-.29.408.005.003.285-.411zm.44.512l.464-.186-.003-.008-.003-.007-.458.201zM13.2 6.1a.5.5 0 001 0h-1zm-.436-1.816l-.367.34.002.001.365-.341zM10.9 2.8a.5.5 0 000 1v-1zM16 6.1a.5.5 0 001 0h-1zM10.9 0a.5.5 0 000 1V0zm5.576 13.564h-.5c0 .213-.047.436-.152.659l.452.213.452.213c.167-.353.248-.722.248-1.085h-.5zm-.2.872l-.452-.213a2.8 2.8 0 01-.463.693l.371.336.37.336c.267-.295.47-.608.626-.938l-.452-.214zm-.544.816l-.37-.336c-.348.383-.72.649-1.132.817l.19.463.19.463a4.108 4.108 0 001.492-1.071l-.37-.336zm-1.312.944l-.192-.462A3.519 3.519 0 0112.86 16v1c.623 0 1.21-.116 1.752-.343l-.192-.461zm-1.56.304V16c-.737 0-1.542-.173-2.412-.544l-.196.46-.196.46c.97.413 1.909.624 2.804.624v-.5zm-2.608-.584l.196-.46a13.556 13.556 0 01-2.654-1.528l-.294.404-.294.404a14.527 14.527 0 002.85 1.64l.196-.46zM7.5 14.332l.295-.404a22.488 22.488 0 01-2.567-2.191l-.352.355-.352.355a23.54 23.54 0 002.681 2.289l.295-.404zm-2.624-2.24l.355-.352a22.231 22.231 0 01-2.183-2.558l-.404.294-.404.294a23.23 23.23 0 002.28 2.674l.356-.352zM2.644 9.476l.406-.292c-.638-.887-1.147-1.767-1.514-2.631l-.46.195-.46.195c.4.944.949 1.889 1.622 2.825l.406-.292zM1.076 6.748l.46-.194C1.175 5.692 1 4.886 1 4.132H0c0 .91.21 1.848.615 2.81l.461-.194zM.5 4.132H1c0-.485.085-.941.252-1.358l-.464-.186-.464-.186A4.638 4.638 0 000 4.132h.5zm.288-1.544l.465.183c.164-.415.424-.803.798-1.155l-.343-.364-.343-.364A4.182 4.182 0 00.323 2.405l.465.183zm.92-1.336l.35.356C2.496 1.178 2.936 1 3.373 1V0c-.747 0-1.427.317-2.015.896l.351.356zM3.372.5V1c.154 0 .303.033.432.095L4.02.644l.216-.45A2.003 2.003 0 003.372 0v.5zm.648.144l-.21.454c.134.062.246.15.335.279l.411-.285.411-.285A1.804 1.804 0 004.23.19l-.21.454zm.536.448l-.408.29 1.856 2.615.408-.289.408-.29L4.964.804l-.408.289zm1.856 2.616L6.006 4c.126.175.209.325.263.457l.463-.189.463-.19a3.234 3.234 0 00-.377-.662l-.406.292zm.32.56l-.46.197a.774.774 0 01.072.291h1c0-.236-.06-.471-.152-.685l-.46.197zm.112.488h-.5a.588.588 0 01-.095.308l.427.26.427.26c.155-.254.241-.535.241-.828h-.5zm-.168.568l-.435-.246a2.23 2.23 0 01-.367.46l.354.354.354.354c.214-.215.397-.443.53-.676l-.436-.246zm-.448.568l-.36-.347-.608.632.36.347.36.347.608-.632-.36-.347zm-.608.632l-.354-.354a.927.927 0 00-.274.674h1c0-.011.002-.005-.004.01a.096.096 0 01-.01.017l-.004.007-.354-.354zm-.128.32h-.5c0 .111.015.208.039.305l.485-.121.485-.121a.231.231 0 01-.009-.063h-.5zm.024.184l-.468.176c.016.043.033.082.043.105a.655.655 0 01.015.037l.474-.158.474-.158a1.166 1.166 0 00-.043-.11c-.012-.03-.02-.047-.027-.068l-.468.176zm.064.16l-.439.24c.168.307.44.68.801 1.107l.382-.323.382-.323c-.343-.406-.567-.72-.687-.94l-.439.239zm.744 1.024l-.378.327c.365.422.756.854 1.181 1.287l.357-.35.357-.35a27.076 27.076 0 01-1.139-1.241l-.378.327zm1.16 1.264l-.35.357c.436.428.861.83 1.298 1.2l.324-.381.324-.381a23.6 23.6 0 01-1.246-1.152l-.35.357zm1.272 1.176l-.323.382c.43.364.805.629 1.121.796l.234-.442.234-.442c-.228-.12-.542-.336-.943-.676l-.323.382zm1.032.736l-.186.464.044.02.089.04.197-.46.197-.46-.067-.03a1.917 1.917 0 00-.088-.038l-.186.464zm.144.064l-.176.468c.138.052.265.064.376.064v-1a.189.189 0 01-.028-.001h.004l-.176.469zm.2.032v.5a.94.94 0 00.682-.282l-.354-.354-.354-.354c-.003.004-.003.004 0 .002a.078.078 0 01.028-.012h-.002v.5zm.328-.136l.351.356.608-.6-.351-.356-.351-.356-.608.6.351.356zm.608-.6l.354.354c.18-.18.33-.295.453-.359l-.231-.443-.231-.443a2.945 2.945 0 00-.699.537l.354.354zm.576-.448l.26.427a.567.567 0 01.308-.095v-1a1.57 1.57 0 00-.828.24l.26.428zm.568-.168v.5a.78.78 0 01.299.067l.189-.463.19-.463a1.775 1.775 0 00-.678-.141v.5zm.488.104l-.19.463a2.6 2.6 0 01.469.262l.281-.413.281-.414a3.59 3.59 0 00-.652-.36l-.189.462zm.56.312l-.29.408 2.648 1.88.29-.408.29-.408-2.649-1.88-.289.408zm2.648 1.88l-.285.411c.144.1.222.199.267.302l.458-.201.458-.201a1.713 1.713 0 00-.613-.722l-.285.411zm.44.512l-.464.186c.061.154.092.29.092.438h1c0-.3-.066-.564-.164-.81l-.464.186zM13.7 6.1h.5c0-.353-.132-.74-.313-1.092a4.835 4.835 0 00-.758-1.065l-.365.341-.365.341c.25.268.457.565.598.84.147.287.203.508.203.635h.5zm-.936-1.816l.367-.34C12.577 3.347 11.773 2.8 10.9 2.8v1c.47 0 1.027.317 1.497.824l.367-.34zM16.5 6.1h.5C17 2.728 14.272 0 10.9 0v1C13.72 1 16 3.28 16 6.1h.5z" fill="currentColor"/></svg>
